images/ecology/eco-icon.svg

<svg width="75" height="25" viewBox="0 0 75 25" fill="none" xmlns="http://www.w3.org/2000/svg">
<path d="M17.7282 18.9148C18.8328 18.9148 19.7282 19.8103 19.7282 20.9148V22.0734C19.7282 23.178 18.8328 24.0734 17.7282 24.0734H2C0.895433 24.0734 0 23.178 0 22.0734V2.47203C0 1.36746 0.895431 0.472028 2 0.472028H17.2719C18.3765 0.472028 19.2719 1.36746 19.2719 2.47203V3.63062C19.2719 4.73519 18.3765 5.63062 17.2719 5.63062H8.86957C7.77094 5.63062 6.88031 6.52124 6.88031 7.61988V7.61988C6.88031 8.71852 7.77093 9.60914 8.86957 9.60914H15.7975C16.9021 9.60914 17.7975 10.5046 17.7975 11.6091V12.5992C17.7975 13.7037 16.9021 14.5992 15.7975 14.5992H8.88031C7.77574 14.5992 6.88031 15.4946 6.88031 16.5992V16.9148C6.88031 18.0194 7.77574 18.9148 8.88031 18.9148H17.7282Z" fill="url(#paint0_linear)"/>
<path d="M35.8021 24.5455C33.2279 24.5455 30.911 24.0285 28.8516 22.9945C26.8156 21.9381 25.2125 20.477 24.0424 18.6114C22.8723 16.7458 22.2872 14.6329 22.2872 12.2727C22.2872 9.91259 22.8723 7.7997 24.0424 5.93407C25.2125 4.06843 26.8156 2.61863 28.8516 1.58466C30.911 0.528221 33.2279 0 35.8021 0C38.0488 0 40.0731 0.382118 41.8751 1.14635C43.0442 1.64218 44.0852 2.27993 44.9982 3.05961C45.8246 3.76535 45.7131 5.01993 44.8928 5.73278L43.4598 6.97812C42.6241 7.70429 41.3743 7.58256 40.4816 6.92785C39.2104 5.9956 37.7676 5.52947 36.1532 5.52947C34.8192 5.52947 33.6257 5.81044 32.5726 6.37238C31.5429 6.93432 30.7355 7.73227 30.1505 8.76623C29.5888 9.77772 29.308 10.9466 29.308 12.2727C29.308 13.5989 29.5888 14.779 30.1505 15.8129C30.7355 16.8244 31.5429 17.6111 32.5726 18.1731C33.6257 18.735 34.8192 19.016 36.1532 19.016C37.7676 19.016 39.2104 18.5499 40.4816 17.6176C41.3743 16.9629 42.6241 16.8412 43.4598 17.5673L44.8928 18.8127C45.7131 19.5255 45.8246 20.7801 44.9982 21.4858C44.0852 22.2655 43.0442 22.9033 41.8751 23.3991C40.0731 24.1633 38.0488 24.5455 35.8021 24.5455Z" fill="url(#paint1_linear)"/>
<path d="M61.3447 24.5455C58.747 24.5455 56.4068 24.0172 54.324 22.9608C52.2645 21.9043 50.6381 20.4433 49.4446 18.5777C48.2744 16.712 47.6894 14.6104 47.6894 12.2727C47.6894 9.93507 48.2744 7.83342 49.4446 5.96778C50.6381 4.10215 52.2645 2.64111 54.324 1.58466C56.4068 0.528221 58.747 0 61.3447 0C63.9424 0 66.2709 0.528221 68.3303 1.58466C70.4131 2.64111 72.0396 4.10215 73.2097 5.96778C74.4032 7.83342 75 9.93507 75 12.2727C75 14.6104 74.4032 16.712 73.2097 18.5777C72.0396 20.4433 70.4131 21.9043 68.3303 22.9608C66.2709 24.0172 63.9424 24.5455 61.3447 24.5455ZM61.3447 19.016C62.585 19.016 63.7083 18.735 64.7146 18.1731C65.7209 17.6111 66.5166 16.8244 67.1017 15.8129C67.6867 14.779 67.9793 13.5989 67.9793 12.2727C67.9793 10.9466 67.6867 9.77772 67.1017 8.76623C66.5166 7.73227 65.7209 6.93432 64.7146 6.37238C63.7083 5.81044 62.585 5.52947 61.3447 5.52947C60.1044 5.52947 58.981 5.81044 57.9747 6.37238C56.9684 6.93432 56.1728 7.73227 55.5877 8.76623C55.0026 9.77772 54.7101 10.9466 54.7101 12.2727C54.7101 13.5989 55.0026 14.779 55.5877 15.8129C56.1728 16.8244 56.9684 17.6111 57.9747 18.1731C58.981 18.735 60.1044 19.016 61.3447 19.016Z" fill="url(#paint2_linear)"/>
<defs>
<linearGradient id="paint0_linear" x1="39.0203" y1="-11.0138" x2="39.0203" y2="24.029" gradientUnits="userSpaceOnUse">
<stop stop-color="#AD844C"/>
<stop offset="0.46875" stop-color="#BDA180"/>
<stop offset="0.682292" stop-color="#AD844C"/>
</linearGradient>
<linearGradient id="paint1_linear" x1="39.0203" y1="-11.0138" x2="39.0203" y2="24.029" gradientUnits="userSpaceOnUse">
<stop stop-color="#AD844C"/>
<stop offset="0.46875" stop-color="#BDA180"/>
<stop offset="0.682292" stop-color="#AD844C"/>
</linearGradient>
<linearGradient id="paint2_linear" x1="39.0203" y1="-11.0138" x2="39.0203" y2="24.029" gradientUnits="userSpaceOnUse">
<stop stop-color="#AD844C"/>
<stop offset="0.46875" stop-color="#BDA180"/>
<stop offset="0.682292" stop-color="#AD844C"/>
</linearGradient>
</defs>
</svg>

<svg width="75" height="25" fill="none" xmlns="http://www.w3.org/2000/svg"><path d="M17.728 18.915a2 2 0 012 2v1.158a2 2 0 01-2 2H2a2 2 0 01-2-2V2.472a2 2 0 012-2h15.272a2 2 0 012 2v1.159a2 2 0 01-2 2H8.87a1.99 1.99 0 100 3.979h6.928a2 2 0 012 2v.99a2 2 0 01-2 2H8.88a2 2 0 00-2 2v.315a2 2 0 002 2h8.848z" fill="url(#paint0_linear)"/><path d="M35.802 24.546c-2.574 0-4.891-.517-6.95-1.552-2.036-1.056-3.64-2.517-4.81-4.383-1.17-1.865-1.755-3.978-1.755-6.338s.585-4.473 1.755-6.339c1.17-1.866 2.774-3.315 4.81-4.35C30.91.529 33.228 0 35.802 0c2.247 0 4.271.382 6.073 1.146 1.17.496 2.21 1.134 3.123 1.914.827.705.715 1.96-.105 2.673L43.46 6.978c-.836.726-2.086.605-2.978-.05-1.272-.932-2.714-1.399-4.329-1.399-1.334 0-2.527.281-3.58.843a6.084 6.084 0 00-2.422 2.394c-.562 1.012-.843 2.18-.843 3.507 0 1.326.28 2.506.843 3.54a6.148 6.148 0 002.422 2.36c1.053.562 2.246.843 3.58.843 1.615 0 3.057-.466 4.329-1.398.892-.655 2.142-.777 2.978-.05l1.433 1.245c.82.713.932 1.967.105 2.673a11.965 11.965 0 01-3.123 1.913c-1.802.764-3.826 1.146-6.073 1.146z" fill="url(#paint1_linear)"/><path d="M61.345 24.546c-2.598 0-4.938-.529-7.021-1.585-2.06-1.057-3.686-2.518-4.88-4.383-1.17-1.866-1.755-3.968-1.755-6.305 0-2.338.585-4.44 1.756-6.305 1.193-1.866 2.82-3.327 4.879-4.383C56.407.528 58.747 0 61.344 0c2.598 0 4.927.528 6.986 1.585 2.083 1.056 3.71 2.517 4.88 4.383C74.403 7.833 75 9.935 75 12.273c0 2.337-.597 4.439-1.79 6.305-1.17 1.865-2.797 3.326-4.88 4.383-2.06 1.056-4.388 1.585-6.985 1.585zm0-5.53c1.24 0 2.363-.281 3.37-.843a6.215 6.215 0 002.387-2.36c.585-1.034.877-2.214.877-3.54s-.292-2.495-.877-3.507a6.15 6.15 0 00-2.387-2.394c-1.007-.562-2.13-.843-3.37-.843-1.24 0-2.364.281-3.37.843a6.15 6.15 0 00-2.387 2.394c-.585 1.012-.878 2.18-.878 3.507 0 1.326.293 2.506.878 3.54a6.215 6.215 0 002.387 2.36c1.006.562 2.13.843 3.37.843z" fill="url(#paint2_linear)"/><defs><linearGradient id="paint0_linear" x1="39.02" y1="-11.014" x2="39.02" y2="24.029" gradientUnits="userSpaceOnUse"><stop stop-color="#AD844C"/><stop offset=".469" stop-color="#BDA180"/><stop offset=".682" stop-color="#AD844C"/></linearGradient><linearGradient id="paint1_linear" x1="39.02" y1="-11.014" x2="39.02" y2="24.029" gradientUnits="userSpaceOnUse"><stop stop-color="#AD844C"/><stop offset=".469" stop-color="#BDA180"/><stop offset=".682" stop-color="#AD844C"/></linearGradient><linearGradient id="paint2_linear" x1="39.02" y1="-11.014" x2="39.02" y2="24.029" gradientUnits="userSpaceOnUse"><stop stop-color="#AD844C"/><stop offset=".469" stop-color="#BDA180"/><stop offset=".682" stop-color="#AD844C"/></linearGradient></defs></svg>
